svg/u1f945.svg

<svg viewBox="0 0 128 128" xmlns="http://www.w3.org/2000/svg">
  <path d="M35.89,98.57c-0.01-0.14-1.02-14.31-1.02-23.58c0-8.68,0.13-28.31,0.14-30.84 c-0.45-0.79-2-3.47-3.33-5.39c-1.62-2.36-4.75-8.47-4.88-8.72l1.78-0.91c0.03,0.06,3.2,6.25,4.75,8.5 c1.61,2.35,3.47,5.63,3.55,5.77l0.13,0.23l0,0.27c0,0.22-0.15,21.86-0.15,31.09c0,9.2,1.01,23.29,1.02,23.43L35.89,98.57z" fill="#B7CBD3"/>
  <path d="M48.84,99.58l-2-0.14c0-0.02,0.15-2.2-0.15-6.58l-0.24-3.55c-0.49-7.18-0.96-13.96-1.08-23.95 c-0.14-11.56,0.11-20.44,0.14-21.54c-0.1-0.48-0.61-2.78-2.11-6.26c-1.8-4.2-2.11-8.61-2.12-8.8l2-0.13c0,0.04,0.31,4.27,1.97,8.14 c1.78,4.15,2.24,6.68,2.26,6.79l0.02,0.1l0,0.1c0,0.09-0.29,9.32-0.15,21.56c0.12,9.94,0.58,16.69,1.07,23.84l0.24,3.55 C48.99,97.27,48.84,99.49,48.84,99.58z" fill="#B7CBD3"/>
  <path d="M57.35,98.07c-0.01-0.36-0.59-36.56-0.73-42.48c-0.13-5.46-0.02-11.35,0-12.32 c-0.2-0.8-1.18-4.81-1.45-8.06c-0.2-2.36-0.01-6.52,0-6.7l2,0.09c0,0.04-0.19,4.21,0,6.44c0.28,3.38,1.42,7.82,1.43,7.86l0.03,0.13 l0,0.14c0,0.06-0.14,6.47,0,12.36c0.14,5.92,0.72,42.13,0.73,42.49L57.35,98.07z" fill="#B7CBD3"/>
  <path d="M69.47,98.07l-0.58-53.93l0.01-0.06c0.02-0.17,0.45-4.16,1.03-7.23c0.37-1.92,0.57-4.65,0.57-7.7h2 c0,3.21-0.21,6-0.6,8.07c-0.53,2.79-0.95,6.51-1,7.02l0.58,53.81L69.47,98.07z" fill="#B7CBD3"/>
  <path d="M82.86,98.64h-2c0-0.1,0-9.83-0.15-27.29c-0.14-17.47-0.15-26.92-0.15-27.02v-0.18l0.06-0.17 c0.01-0.03,1.01-2.76,1.72-5.59c0.73-2.92,2.19-9.04,2.19-9.04l1.95,0.46c0,0-1.46,6.14-2.19,9.06c-0.64,2.56-1.49,4.97-1.72,5.63 c0,1.37,0.01,10.67,0.15,26.83C82.86,88.8,82.86,98.54,82.86,98.64z" fill="#B7CBD3"/>
  <path d="M91.66,97.33l-0.44-52.51l0.11-0.22c0,0,3.07-5.99,4.68-9.06c1.61-3.07,4.03-6.79,4.14-6.94 l1.67,1.09c-0.02,0.04-2.47,3.79-4.04,6.78c-1.42,2.72-3.99,7.72-4.56,8.83l0.44,52.02L91.66,97.33z" fill="#B7CBD3"/>
  <path d="M17.65,104.02l-1.81-0.84c0.5-1.08,1.81-4.27,1.81-6c0-0.79-0.02-3.89-0.04-7.99 c-0.04-7.9-0.11-19.84-0.11-25.73c0-8.81,0.29-25.69,0.29-25.86l2,0.03c0,0.17-0.29,17.03-0.29,25.82c0,5.89,0.06,17.82,0.11,25.72 c0.02,4.11,0.04,7.21,0.04,8C19.64,99.71,17.73,103.85,17.65,104.02z" fill="#B7CBD3"/>
  <path d="M108.16,101.13c0-0.18-0.14-17.93,0-27.03c0.03-2.14,0.09-5.12,0.16-8.47 c0.2-10.42,0.5-26.17,0.29-28.35l1.99-0.2c0.23,2.3-0.05,16.88-0.28,28.59c-0.06,3.35-0.12,6.33-0.16,8.46 c-0.14,9.08,0,26.81,0,26.99L108.16,101.13z" fill="#B7CBD3"/>
  <path d="M60.05,55.42c-24.91,0-34.43-2.86-34.84-2.98l-0.21-0.09c-0.03-0.02-3.19-1.88-6.72-3.29 c-3.72-1.49-8.07-4.66-8.25-4.79l1.18-1.61c0.04,0.03,4.32,3.16,7.81,4.55c3.34,1.34,6.28,3.01,6.89,3.36 c1.14,0.32,11.93,3.12,37.7,2.85c25.41-0.27,37.92-2.4,39.62-2.72l11.65-8.2l1.15,1.64l-12,8.44l-0.21,0.04 c-0.12,0.03-12.68,2.5-40.19,2.79C62.39,55.41,61.2,55.42,60.05,55.42z" fill="#B7CBD3"/>
  <path d="M64.63,64.02c-28.68,0-38.21-2.95-39.73-3.5c-0.89,0.03-4.44,0.14-6.26,0.14 c-2.03,0-7.53-0.14-7.76-0.15l0.05-2c0.06,0,5.7,0.15,7.71,0.15c2,0,6.35-0.14,6.39-0.15l0.22-0.01l0.2,0.08 c0.08,0.03,8.81,3.43,39.18,3.43c30.46,0,38.5-1.99,38.58-2.01l13.57-3.65l0.52,1.93l-13.58,3.65 C103.4,62.02,95.5,64.02,64.63,64.02z" fill="#B7CBD3"/>
  <path d="M59.32,73.67c-25.32,0-32.21-2.06-33.94-2.87c-0.9,0.23-3.34,0.86-6.64,1.66 c-4.28,1.03-8.21,1.19-8.37,1.2l-0.07-2c0.04,0,3.9-0.16,7.98-1.14c4.17-1.01,6.96-1.74,6.99-1.75l0.49-0.13l0.39,0.32 c0.14,0.09,4.97,2.97,37.46,2.7c33.05-0.28,38.79-2.59,39.02-2.69l0.27-0.12l0.31,0.04c0.02,0,2.45,0.42,5.96,0.42 c3.62,0,8.74,0.14,8.79,0.15l-0.06,2c-0.05,0-5.14-0.15-8.73-0.15c-3.04,0-5.28-0.3-6.03-0.41c-1.57,0.52-9.45,2.49-39.51,2.75 C62.13,73.66,60.69,73.67,59.32,73.67z" fill="#B7CBD3"/>
  <path d="M11.76,84.45l-0.26-1.98c0.03,0,3.35-0.44,6.75-1.29c3.4-0.85,7.15-2.29,7.18-2.3l0.28-0.11 l0.29,0.07c0.11,0.02,11.35,2.45,38.16,1.87c26.92-0.58,38.73-2.45,38.84-2.47l0.28-0.04l0.26,0.11c0.02,0.01,1.76,0.72,5.98,1.7 c4.34,1.01,8.31,2.04,8.35,2.05l-0.5,1.94c-0.04-0.01-3.98-1.03-8.3-2.04c-3.5-0.82-5.36-1.45-6.02-1.7 c-1.92,0.28-14.03,1.92-38.85,2.45c-25.01,0.54-36.37-1.47-38.34-1.86c-0.95,0.36-4.12,1.51-7.14,2.27 C15.22,83.99,11.9,84.43,11.76,84.45z" fill="#B7CBD3"/>
  <path d="M116.93,96.78c0,0-5.26-2.34-8.48-3.8c-2.22-1.01-3.83-2.15-4.69-2.81l-0.64,0.55l-0.34,0.02 c-0.14,0.01-14.17,0.74-38.29,1.17c-22.53,0.4-37.41-0.7-39.43-0.86l-12.78,5.03l-0.73-1.86l13.21-5.2L25,89.03 c0.15,0.01,15.42,1.31,39.46,0.87c22.02-0.39,35.6-1.04,37.88-1.15l1.44-1.23l0.65,0.6c0.02,0.02,1.84,1.67,4.85,3.04 c3.21,1.46,8.46,3.79,8.46,3.79L116.93,96.78z" fill="#B7CBD3"/>
  <path d="M70.2,35.57c-2.1,0-4.3-0.01-6.6-0.03c-35.84-0.29-46.56-1.31-46.66-1.32l0.2-1.99 c0.1,0.01,10.78,1.02,46.48,1.31c35.61,0.29,47.58-1.86,47.7-1.88l0.37,1.97C111.23,33.72,100.94,35.57,70.2,35.57z" fill="#B7CBD3"/>
  <path d="M70.8,40.38c-2.22,0-4.56,0-7.05-0.01C27.12,40.22,21,38.93,20.76,38.88l0.43-1.95 c0.25,0.05,6.46,1.29,42.57,1.44c36.24,0.14,43.14-0.85,43.2-0.86l0.31,1.98C107.02,39.51,101.22,40.38,70.8,40.38z" fill="#B7CBD3"/>
  <path d="M104.52,96.46l0.37-50.94l11.58-12.58l-2.62-4.36l-12.95,14.32l-74.47-0.75L11.99,26.48l-3.74,3.49 l15.5,16.12l0.19,51.75l-11.58,4.61l-0.37,5.48l14.7-6.1l76.84-0.75l12.7,6.48l-0.12-4.86L104.52,96.46z M100.66,95.84 c-0.62,0.37-72.23,0.75-72.6,0.5s-1.06-48.38-0.25-49.19c0.62-0.62,71.73-0.25,73.1,0.37c0.68,0.31,0.51,10.98,0.37,22.79 C101.12,82.42,100.97,95.65,100.66,95.84z" fill="#9A9A9A"/>
  <path d="M5.93,105.72l3.01,3.25c0,0,0.9-0.01,2.11-0.25c1.24-0.24,2.08-0.86,2.3-1.74 c0.31-1.24-0.33-72.02-0.33-72.02c0.09-1.61-0.09-3.32,2.15-3.41c2.24-0.09,95.96-0.09,97.03-0.09s2.69,0.36,2.69,2.78 s-0.45,71.83-0.36,72.46c0.09,0.63,0.69,1.5,2.44,1.87c1.85,0.39,4.2,0.11,4.2,0.11l1.25-11.04l-1.39-71.55L9.19,25.04l-3.92,6.19 L5.93,105.72z" fill="#DF0A2B"/>
  <path d="M5.62,24.69c-2.24,2.99-1.7,6.14-1.7,15.02s-0.13,64.25,0,65.82c0.13,1.57,0.33,2.62,2.25,3.17 c1.39,0.39,2.75,0.27,2.75,0.27s0.22-76.83,0.22-78.01s-0.26-3.26,1.96-3.53s103.04,0.26,104.21,0.13s3.13,1.04,3.13,2.48 s0.76,78.74,0.76,78.74s3.57,0.26,4.33-1.3c0.77-1.57,0.52-77.31,0.26-79.4s-1.96-4.57-5.35-5.35S12.8,21.94,10.98,22.07 S6.8,23.12,5.62,24.69z" fill="#FF180A"/>
</svg>

<svg viewBox="0 0 128 128" xmlns="http://www.w3.org/2000/svg">
  <defs/>
  <path d="M35.89,98.57 C35.88,98.43 34.87,84.26 34.87,74.99 C34.87,66.31 35,46.68 35.01,44.15 C34.56,43.36 33.01,40.68 31.68,38.76 C30.06,36.4 26.93,30.29 26.8,30.04 L28.58,29.13 C28.61,29.19 31.78,35.38 33.33,37.63 C34.94,39.98 36.8,43.26 36.88,43.4 L37.01,43.63 L37.01,43.9 C37.01,44.12 36.86,65.76 36.86,74.99 C36.86,84.19 37.87,98.28 37.88,98.42 L35.89,98.57 Z" fill="#B7CBD3"/>
  <path d="M48.84,99.58 L46.84,99.44 C46.84,99.42 46.99,97.24 46.69,92.86 L46.45,89.31 C45.96,82.13 45.49,75.35 45.37,65.36 C45.23,53.8 45.48,44.92 45.51,43.82 C45.41,43.34 44.9,41.04 43.4,37.56 C41.6,33.36 41.29,28.95 41.28,28.76 L43.28,28.63 C43.28,28.67 43.59,32.9 45.25,36.77 C47.03,40.92 47.49,43.45 47.51,43.56 L47.53,43.66 L47.53,43.76 C47.53,43.85 47.24,53.08 47.38,65.32 C47.5,75.26 47.96,82.01 48.45,89.16 L48.69,92.71 C48.99,97.27 48.84,99.49 48.84,99.58 Z" fill="#B7CBD3"/>
  <path d="M57.35,98.07 C57.34,97.71 56.76,61.51 56.62,55.59 C56.49,50.13 56.6,44.24 56.62,43.27 C56.42,42.47 55.44,38.46 55.17,35.21 C54.97,32.85 55.16,28.69 55.17,28.51 L57.17,28.6 C57.17,28.64 56.98,32.81 57.17,35.04 C57.45,38.42 58.59,42.86 58.6,42.9 L58.63,43.03 L58.63,43.17 C58.63,43.23 58.49,49.64 58.63,55.53 C58.77,61.45 59.35,97.66 59.36,98.02 L57.35,98.07 Z" fill="#B7CBD3"/>
  <path d="M69.47,98.07 L68.89,44.14 L68.9,44.08 C68.92,43.91 69.35,39.92 69.93,36.85 C70.3,34.93 70.5,32.2 70.5,29.15 L72.5,29.15 C72.5,32.36 72.29,35.15 71.9,37.22 C71.37,40.01 70.95,43.73 70.9,44.24 L71.48,98.05 L69.47,98.07 Z" fill="#B7CBD3"/>
  <path d="M82.86,98.64 L80.86,98.64 C80.86,98.54 80.86,88.81 80.71,71.35 C80.57,53.88 80.56,44.43 80.56,44.33 L80.56,44.15 L80.62,43.98 C80.63,43.95 81.63,41.22 82.34,38.39 C83.07,35.47 84.53,29.35 84.53,29.35 L86.48,29.81 C86.48,29.81 85.02,35.95 84.29,38.87 C83.65,41.43 82.8,43.84 82.57,44.5 C82.57,45.87 82.58,55.17 82.72,71.33 C82.86,88.8 82.86,98.54 82.86,98.64 Z" fill="#B7CBD3"/>
  <path d="M91.66,97.33 L91.22,44.82 L91.33,44.6 C91.33,44.6 94.4,38.61 96.01,35.54 C97.62,32.47 100.04,28.75 100.15,28.6 L101.82,29.69 C101.8,29.73 99.35,33.48 97.78,36.47 C96.36,39.19 93.79,44.19 93.22,45.3 L93.66,97.32 L91.66,97.33 Z" fill="#B7CBD3"/>
  <path d="M17.65,104.02 L15.84,103.18 C16.34,102.1 17.65,98.91 17.65,97.18 C17.65,96.39 17.63,93.29 17.61,89.19 C17.57,81.29 17.5,69.35 17.5,63.46 C17.5,54.65 17.79,37.77 17.79,37.6 L19.79,37.63 C19.79,37.8 19.5,54.66 19.5,63.45 C19.5,69.34 19.56,81.27 19.61,89.17 C19.63,93.28 19.65,96.38 19.65,97.17 C19.64,99.71 17.73,103.85 17.65,104.02 Z" fill="#B7CBD3"/>
  <path d="M108.16,101.13 C108.16,100.95 108.02,83.2 108.16,74.1 C108.19,71.96 108.25,68.98 108.32,65.63 C108.52,55.21 108.82,39.46 108.61,37.28 L110.6,37.08 C110.83,39.38 110.55,53.96 110.32,65.67 C110.26,69.02 110.2,72 110.16,74.13 C110.02,83.21 110.16,100.94 110.16,101.12 L108.16,101.13 Z" fill="#B7CBD3"/>
  <path d="M60.05,55.42 C35.14,55.42 25.62,52.56 25.21,52.44 L25,52.35 C24.97,52.33 21.81,50.47 18.28,49.06 C14.56,47.57 10.21,44.4 10.03,44.27 L11.21,42.66 C11.25,42.69 15.53,45.82 19.02,47.21 C22.36,48.55 25.3,50.22 25.91,50.57 C27.05,50.89 37.84,53.69 63.61,53.42 C89.02,53.15 101.53,51.02 103.23,50.7 L114.88,42.5 L116.03,44.14 L104.03,52.58 L103.82,52.62 C103.7,52.65 91.14,55.12 63.63,55.41 C62.39,55.41 61.2,55.42 60.05,55.42 Z" fill="#B7CBD3"/>
  <path d="M64.63,64.02 C35.95,64.02 26.42,61.07 24.9,60.52 C24.01,60.55 20.46,60.66 18.64,60.66 C16.61,60.66 11.11,60.52 10.88,60.51 L10.93,58.51 C10.99,58.51 16.63,58.66 18.64,58.66 C20.64,58.66 24.99,58.52 25.03,58.51 L25.25,58.5 L25.45,58.58 C25.53,58.61 34.26,62.01 64.63,62.01 C95.09,62.01 103.13,60.02 103.21,60 L116.78,56.35 L117.3,58.28 L103.72,61.93 C103.4,62.02 95.5,64.02 64.63,64.02 Z" fill="#B7CBD3"/>
  <path d="M59.32,73.67 C34,73.67 27.11,71.61 25.38,70.8 C24.48,71.03 22.04,71.66 18.74,72.46 C14.46,73.49 10.53,73.65 10.37,73.66 L10.3,71.66 C10.34,71.66 14.2,71.5 18.28,70.52 C22.45,69.51 25.24,68.78 25.27,68.77 L25.76,68.64 L26.15,68.96 C26.29,69.05 31.12,71.93 63.61,71.66 C96.66,71.38 102.4,69.07 102.63,68.97 L102.9,68.85 L103.21,68.89 C103.23,68.89 105.66,69.31 109.17,69.31 C112.79,69.31 117.91,69.45 117.96,69.46 L117.9,71.46 C117.85,71.46 112.76,71.31 109.17,71.31 C106.13,71.31 103.89,71.01 103.14,70.9 C101.57,71.42 93.69,73.39 63.63,73.65 C62.13,73.66 60.69,73.67 59.32,73.67 Z" fill="#B7CBD3"/>
  <path d="M11.76,84.45 L11.5,82.47 C11.53,82.47 14.85,82.03 18.25,81.18 C21.65,80.33 25.4,78.89 25.43,78.88 L25.71,78.77 L26,78.84 C26.11,78.86 37.35,81.29 64.16,80.71 C91.08,80.13 102.89,78.26 103,78.24 L103.28,78.2 L103.54,78.31 C103.56,78.32 105.3,79.03 109.52,80.01 C113.86,81.02 117.83,82.05 117.87,82.06 L117.37,84 C117.33,83.99 113.39,82.97 109.07,81.96 C105.57,81.14 103.71,80.51 103.05,80.26 C101.13,80.54 89.02,82.18 64.2,82.71 C39.19,83.25 27.83,81.24 25.86,80.85 C24.91,81.21 21.74,82.36 18.72,83.12 C15.22,83.99 11.9,84.43 11.76,84.45 Z" fill="#B7CBD3"/>
  <path d="M116.93,96.78 C116.93,96.78 111.67,94.44 108.45,92.98 C106.23,91.97 104.62,90.83 103.76,90.17 L103.12,90.72 L102.78,90.74 C102.64,90.75 88.61,91.48 64.49,91.91 C41.96,92.31 27.08,91.21 25.06,91.05 L12.28,96.08 L11.55,94.22 L24.76,89.02 L25,89.03 C25.15,89.04 40.42,90.34 64.46,89.9 C86.48,89.51 100.06,88.86 102.34,88.75 L103.78,87.52 L104.43,88.12 C104.45,88.14 106.27,89.79 109.28,91.16 C112.49,92.62 117.74,94.95 117.74,94.95 L116.93,96.78 Z" fill="#B7CBD3"/>
  <path d="M70.2,35.57 C68.1,35.57 65.9,35.56 63.6,35.54 C27.76,35.25 17.04,34.23 16.94,34.22 L17.14,32.23 C17.24,32.24 27.92,33.25 63.62,33.54 C99.23,33.83 111.2,31.68 111.32,31.66 L111.69,33.63 C111.23,33.72 100.94,35.57 70.2,35.57 Z" fill="#B7CBD3"/>
  <path d="M70.8,40.38 C68.58,40.38 66.24,40.38 63.75,40.37 C27.12,40.22 21,38.93 20.76,38.88 L21.19,36.93 C21.44,36.98 27.65,38.22 63.76,38.37 C100,38.51 106.9,37.52 106.96,37.51 L107.27,39.49 C107.02,39.51 101.22,40.38 70.8,40.38 Z" fill="#B7CBD3"/>
  <path d="M104.52,96.46 L104.89,45.52 L116.47,32.94 L113.85,28.58 L100.9,42.9 L26.43,42.15 L11.99,26.48 L8.25,29.97 L23.75,46.09 L23.94,97.84 L12.36,102.45 L11.99,107.93 L26.69,101.83 L103.53,101.08 L116.23,107.56 L116.11,102.7 L104.52,96.46 Z M100.66,95.84 C100.04,96.21 28.43,96.59 28.06,96.34 C27.69,96.09 27,47.96 27.81,47.15 C28.43,46.53 99.54,46.9 100.91,47.52 C101.59,47.83 101.42,58.5 101.28,70.31 C101.12,82.42 100.97,95.65 100.66,95.84 Z" fill="#9A9A9A"/>
  <path d="M5.93,105.72 L8.94,108.97 C8.94,108.97 9.84,108.96 11.05,108.72 C12.29,108.48 13.13,107.86 13.35,106.98 C13.66,105.74 13.02,34.96 13.02,34.96 C13.11,33.35 12.93,31.64 15.17,31.55 C17.41,31.46 111.13,31.46 112.2,31.46 C113.27,31.46 114.89,31.82 114.89,34.24 C114.89,36.66 114.44,106.07 114.53,106.7 C114.62,107.33 115.22,108.2 116.97,108.57 C118.82,108.96 121.17,108.68 121.17,108.68 L122.42,97.64 L121.03,26.09 L9.19,25.04 L5.27,31.23 L5.93,105.72 Z" fill="#DF0A2B"/>
  <path d="M5.62,24.69 C3.38,27.68 3.92,30.83 3.92,39.71 C3.92,48.59 3.79,103.96 3.92,105.53 C4.05,107.1 4.25,108.15 6.17,108.7 C7.56,109.09 8.92,108.97 8.92,108.97 C8.92,108.97 9.14,32.14 9.14,30.96 C9.14,29.78 8.88,27.7 11.1,27.43 C13.32,27.16 114.14,27.69 115.31,27.56 C116.48,27.43 118.44,28.6 118.44,30.04 C118.44,31.48 119.2,108.78 119.2,108.78 C119.2,108.78 122.77,109.04 123.53,107.48 C124.3,105.91 124.05,30.17 123.79,28.08 C123.53,25.99 121.83,23.51 118.44,22.73 C115.05,21.95 12.8,21.94 10.98,22.07 C9.16,22.2 6.8,23.12 5.62,24.69 Z" fill="#FF180A"/>
</svg>
